omega/web/assets/images/sports/quasar-tabl.svg

<svg height="256" viewBox="0 0 256 256" width="256" xmlns="http://www.w3.org/2000/svg"><path d="m37 51.07c-3.89 1.57-7.83 2.07-12 1.89-19.31-.84-30.71-22.21-21.59-38.96 4.36-7.99 11.07-11.64 19.59-13.54 31.05-4.01 41.82 39.35 14 50.61zm214.91 22.93c5.1 14.28 4.11 21.4 4.09 36-.04 26.14-17.02 54.07-35 72-11.06 11.02-30.15 24.34-46 26.52-7.03.97-13.43-7.95-18-12.52 0 0-13.04-14-13.04-14s-28.96-29-28.96-29-39-39-39-39c-3.25-3.25-15.49-14.66-16.68-18-.9-2.51.39-6.48 1.11-9 2.22-7.79 4.57-12.88 8.35-20 11.35-21.37 37.74-41.09 60.22-49.58 8.68-3.27 14-4.32 23-5.98 42.72-5.48 85.5 22.15 99.91 62.56zm-177.91 61s29 29 29 29 29 29 29 29 17 18 17 18c-8.63 0-14.56-.55-23-2.66-8.42-2.11-9.99-4.22-20-4.34-5.48-.06-9.99-.01-14.99 2.67-3.75 2.02-6.16 5.29-9.04 8.33-7.19 7.57-13.73 15.73-20.09 24-7.09 9.21-10.33 17.33-22.88 16.98-12.03-.32-28.09-15.79-28.53-27.98-.3-8.42 7.71-13.75 13.53-18.4 0 0 25-20.19 25-20.19 3.64-3.06 10.68-8.6 12.99-12.41 3.97-6.54 3.39-19.83 1.38-27 0 0-4.63-13-4.63-13-1.31-4.73-2.51-14.04-2.74-19 0 0 18 17 18 17z" fill="#830001"/></svg>

<?xml version="1.0" encoding="UTF-8" standalone="no"?>
<!DOCTYPE svg PUBLIC "-//W3C//DTD SVG 20010904//EN"
              "http://www.w3.org/TR/2001/REC-SVG-20010904/DTD/svg10.dtd">

<svg xmlns="http://www.w3.org/2000/svg"
     width="256" height="256"
     viewBox="0 0 256 256">
  <path id="Selection"
        fill="#830001" 
        d="M 37.00,51.07
           C 33.11,52.64 29.17,53.14 25.00,52.96
             5.69,52.12 -5.71,30.75 3.41,14.00
             7.77,6.01 14.48,2.36 23.00,0.46
             54.05,-3.55 64.82,39.81 37.00,51.07 Z
           M 251.91,74.00
           C 257.01,88.28 256.02,95.40 256.00,110.00
             255.96,136.14 238.98,164.07 221.00,182.00
             209.94,193.02 190.85,206.34 175.00,208.52
             167.97,209.49 161.57,200.57 157.00,196.00
             157.00,196.00 143.96,182.00 143.96,182.00
             143.96,182.00 115.00,153.00 115.00,153.00
             115.00,153.00 76.00,114.00 76.00,114.00
             72.75,110.75 60.51,99.34 59.32,96.00
             58.42,93.49 59.71,89.52 60.43,87.00
             62.65,79.21 65.00,74.12 68.78,67.00
             80.13,45.63 106.52,25.91 129.00,17.42
             137.68,14.15 143.00,13.10 152.00,11.44
             194.72,5.96 237.50,33.59 251.91,74.00 Z
           M 74.00,135.00
           C 74.00,135.00 103.00,164.00 103.00,164.00
             103.00,164.00 132.00,193.00 132.00,193.00
             132.00,193.00 149.00,211.00 149.00,211.00
             140.37,211.00 134.44,210.45 126.00,208.34
             117.58,206.23 116.01,204.12 106.00,204.00
             100.52,203.94 96.01,203.99 91.01,206.67
             87.26,208.69 84.85,211.96 81.97,215.00
             74.78,222.57 68.24,230.73 61.88,239.00
             54.79,248.21 51.55,256.33 39.00,255.98
             26.97,255.66 10.91,240.19 10.47,228.00
             10.17,219.58 18.18,214.25 24.00,209.60
             24.00,209.60 49.00,189.41 49.00,189.41
             52.64,186.35 59.68,180.81 61.99,177.00
             65.96,170.46 65.38,157.17 63.37,150.00
             63.37,150.00 58.74,137.00 58.74,137.00
             57.43,132.27 56.23,122.96 56.00,118.00
             56.00,118.00 74.00,135.00 74.00,135.00 Z" />
</svg>
